X:6357
T:Glory of England,The,1st part. JNu.26
M:3/8
L:1/8
Q:30
S:James Nuttall MS,c1830?,Rossendale,East Lancs.
R:Waltz
O:England
A:East Lancashire
Z:vmp.Manchester Morris Men
K:Eb
"primo"B,2E|G2B|B/A/G/A/c/A/|F2z|B,2E|F2A|A/G/F/G/B/G/|E2z::!
Bee|ede|=efB|egb|Bee|ede|fdd|e3:|]


